X:1
T: Miss Young of Banff's Strathspey
C:William Marshall
R:Strathspey
Q: 128
K:C
M:4/4
L:1/16
|:EF|G3E Gc3 G3E Gc3|e3d ce3 ddd2 d3D|G3E Gc3 G3E Gc3|F3A G3E CCC2 C2EF|
G3E Gc3 G3E Gc3|e3d ce3 ddd2 d3D|G3E Gc3 G3E Gc3|F3A G3E CCC2 C2ef|
g3a ge3 g3a ge3|c3e g3e ddd2 d2ef|g3a ge3 g3a ge3|f3d g3e ccc2 c2ef|
g3a ge3 g3a ge3|c3e g3e ddd2 D3E|C3D E3F G3A B3c|G3E F3D CC3 C2:|
